X:1
T:Son nata a lagrimar
T:Son nata a lagrimar
T:"Giulio Cesare"
T:G.F. Handel
C:G.F. Handel
%%score [ 1 2 ] { ( 3 4 ) | 5 }
L:1/8
Q:3/8=40
M:12/8
K:Gb
V:1 treble nm="Sesto"
V:2 treble nm="Cornelia"
V:3 treble nm="Piano"
V:4 treble 
V:5 bass 
V:1
 z3 z6 | z12 | z12 | z12 | z12 |S z12 | z12 | z12 | z3 z2 D B2 B B2 B | A3 z2 d dBG ecA | %10
w: ||||||||Son na- to'a so- spi-|rar, eil dol- * ce mi- o con-|
 F3 G2 A Bcd B>AG | GFE A3- A/B/cB GFG | F3 z2 B B2 =A z2 =c | =c2 B z2 d d2 _c c>dB | %14
w: for- to, ah, sem- * pre pian- ge- *|ro, ah _ sem- * * * pre pian- * ge-|ro, ah sem- pre, ah|sem- pre, ah sem- pre, sem- * *|
 =A2 B F2 A B6 | z8 z3 e | c2 c cBc B3 z3 | z6 z3 z2 e | ecA =edB =G3 A2 B | cde c>BA A3- ABc | %20
w: * pre pian- ge- ro;|son|na- to'a so- * spi- rar,|e'il|dol- * ce mi- o con- for- to, ah,|sem- * pre pian- ge- * ro, _ _ ah|
 BAG F2 E =D3 z3 | z3 A3 z3 B3 | z3 c3 B2 A G>AF | E3 z2 G G3 F3 | z3 A3 z3 B3 | z3 c3- c6 | %26
w: sem- * pre pian- ge- ro,|Ah, ah,|ah, sem- pre pian- * ge-|ro, ah sem- pre,|Ah, ah,|ah, *|
 z3 BAG (G3 F2) !fermata!E | E6 z6 | z12 | z12 | z8 z!fine! | z2 G | AGd c>Bc B3 z3 | z8 z3 d | %34
w: sem- * pre pian- * ge-|ro.||||Se'il|fa- * to ci- * tra- di,|se-|
 d2 =c c2 c (c2 B) z2 d | e2 d =c2 B =A3 z2 B | (B2 =A) z2 d (d3 =c3) | z2 =c dcB (B3 =A2) B | %38
w: re- no'e lie- to- di, _ mai|piu spe- rar po- tro, mai|piu, _ mai piu, _|mai piu _ spe rar _ po-|
 B6 z6 | z12!D.S.! |] %40
w: tro.||
V:2
 z3 z6 | z12 | z12 | z12 | z12 | z3 z2 B, G2 G GFG | F3 z2 B BGE cAF | =D3 E2 F GAB G>FE | %8
w: |||||Son nata a la- * gri-|mar, e'il dol- * ce mi- o con-|for- to, ah, sem- * pre pian- ge- *|
 E3 z3 z6 | z12 | z12 | z12 | z6 z3 E3 | z3 F3 z3 G3 | F2 E D>E=C B,3 z2 B | G2 G GFG F3 z3 | %16
w: ro.||||Ah,|ah, ah,|sem- pre pian- * ge- ro; son|na- ta'a la- * gri- mar,|
 z8 z3 B | BGE cAF =D3 E3 | z8 z3 =G | ABc A=GA A6 | z8 z3 E | E2 =D z2 F F2 E z2 G | %22
w: e'il|dol- * ce mi- o con- for- to,|ah,|sem- * pre pian- * ge- ro.|ah|sem- pre, ah sem- pre, ah|
 G2 =E E>G_E =D2 E B,2 D | E3 z2 E E3 =D3 | z3 F3 z3 G3 | z3 A3- A6 | z3 GFE (E3 =D2) !fermata!D | %27
w: sem- pre, sem- * * * pre pian- ge-|ro, ah sem- pre,|Ah, ah,|ah, *|sem- * pre pian- * ge-|
 E6 z6 | z12 | z12 | z8 z | z2 z | z8 z3 D | EDA G>FG F3 z2 F | F2 E E2 E (E2 D) z2 F | %35
w: ro.|||||Se'il|fa- * to ci- * tra- di, se-|re- no'e lie- to- di, _ mai|
 G2 F E2 D =C3 z2 D | (D2 =C) z2 B (B3 =A3) | z2 G FED (D3 =C2) B, | B,6 z6 | z12 |] %40
w: piu spe- rar po- tro, mai|piu, _ mai piu, _|mai piu _ spe rar _ po-|tro.||
V:3
 z2 [=DF] [EG][FA][GB] G>F[DE] | E3 z2 [FA] [GB][Ac][Bd] B>A[FG] | G3 z2 e (e2 =d) A2 f | %3
 (f2 e) B2 g (g2 f) c'af | =d3- d2 [=DF] [EG][FA][GB] G>F[DE] | %5
 E2 [Ee] G>F[=DE] E2 [GB] [GB]2 [GB] | [B,B]2 [B,B] [FB]2 [FB] [Be]2 [Be] [Ae]2 [Ae] | %7
 [=DF]2 [DF] [B,E]2 [DA] E2 E E2 D | [Bg][Af][Ge] [Ad]2 [Ac] B2 [FB] [GB]2 [Gc] | %9
 [Ad]2 [Ad] [Ad]2 [Ad] [Gd]2 [Gd] [Gc]2 [Gc] | [Ac][GB][FA] [Gd]2 [cf] g2 [dg] B>A[FG] | %11
 [DG]2 [EB] [=DA]2 [EG] [B,F]2 [B,F] ED[B,E] | [B,F]2 [F=A] B2 [DB] [=C=c]2 [Ac] [Ac]2 [EA] | %13
 [EF]2 [DF] [DF]2 [DF] [B,G]2 [EG] [EG]2 [EG] | [=A,=C]2 [EB] [FB]2 [C=A] [=DF]2 [DF] [EB]2 [FB] | %15
 [GB]2 [GB] [Be]2 [Be] [F=e]2 [=De] [_EB]2 [=GB] | [EA]2 [EA] [DG]2 [DA] [DG]2 [DG] [DG]2 [DG] | %17
 [EG]2 [EB] [EA]2 [EA] [FB]2 [FB] [EB]2 [EB] | A2 [Ae] [Ad]2 [Ad] [Be]2 [Be] [Ae]2 [=GB] | %19
 [Ac][Bd][ce] [Ac][=GB]A [EA]2 [EG] [EA]2 [FA] | [FB]2 [GB] [Ac]2 [Gc] [FB]2 [FB] [GB]2 [GB] | %21
 [B,G]2 [B,F] [=DF]2 [DF] [B,B]2 [EB] [Be]2 [Be] | [Bc]2 [Ac] [Ac]2 [Ac] [=DF]2 [Ae] [Be]2 [F=d] | %23
 AB[Ac] [EB][FA][B,G] B,2 z3 e | e2 d A2 f f2 e B2 g | g2 f z3 z2 z4 | z12 | %27
 B3- B2 e (e2 =d) A2 f | (f2 e) B2 g (g2 f) c'af | =d3- d2 [=DF] [EG][FA][GB] G>F[DE] | %30
 E2 [Ee] G>F[=DE] !fermata!E3 | [=DG]2 [DG] | [A,F]2 [B,G] [CG]2 [DF] [DG]2 [DG] [DA]2 [Ad] | %33
 [A=c]2 [Ad] [Bd]2 [Ac] [Ad]2 [Ad] [Ad]2 [Ad] | [Ad]2 [A=c] [Fc]2 [Fc] [Fc]2 [FB] [DB][Ec][Fd] | %35
 [Ge]2 [Fd] [E=c]2 [DB] [=C=A]2 [CA] B2 [DB] | ([DB]2 [=C=A]) z2 [Bd] ([Bd]3 [A=c]3) | z12 | %38
 z3 z2 e (e2 =d) A2 f | (f2 e) E2 [=DF] [EG][FA][GB] G>F[DE] |] %40
V:4
 x6 E2 x | x9 G2 x | x12 | x12 | x9 E2 x | x3 E2 x7 | x12 | x12 | x6 AG x4 | x12 | x6 Bc x G2 x | %11
 x9 B,2 x | x3 FE x7 | x12 | x12 | x12 | x12 | x12 | x12 | x12 | x12 | x12 | x12 | x12 | x12 | %25
 x12 | x12 | x12 | x12 | x9 E2 x | x9 | x3 | x12 | x12 | x12 | x9 FE x | x12 | x12 | x12 | %39
 x9 E2 x |] %40
V:5
 z2 A, G,F,E, B,2 B,, | E,3 z2 D, G,E,B,, D,2 D,, | G,,B,A, G,F,E, B,,2 B,, F,2 F, | %3
 G,,2 G,, G,2 G, A,,2 A,, A,2 A, | B,,3- B,,2 A, G,F,E, B,2 B,, | %5
 C,B,,A,, B,,2 B,, E,,2 E,, E,2 E, | E,2 E, D,2 D, C,2 C, C,2 C, | %7
 B,,2 A, G,2 F, E,C,G,, B,,2 B,, | E,2 E, F,2 F, G,2 G, G,2 G, | G,2 G, F,2 F, E,2 E, E,2 E, | %10
 D,2 C, B,,2 A, G,E,B,, D,2 D,, | G,,2 G, F,2 E, =D,2 D, E,2 E, | E,D,=C, D,C,B,, F,,2 F,, C,2 C, | %13
 D,,2 D,, D,2 D, E,,2 E,, E,2 E, | F,,2 G, F,2 F,, B,2 A, G,2 =D, | %15
 E,2 E,, G,,2 A,, B,,2 B, =G,2 _E, | A,2 G, F,2 D, G,2 G, G,2 G, | C,2 C, C,2 C, B,,2 A,, G,,2 G, | %18
 =E,2 E, E,2 E, _E,2 D, C,2 B,, | A,,2 A, E,2 E,, A,,CB, A,F,E, | =D,2 E, A,,2 A,, B,,2 A, G,F,E, | %21
 B,,2 B,, F,2 F, G,,2 G,, G,2 G, | A,,2 A,, A,2 A, B,2 C B,2 B,, | %23
 C,B,,A,, G,,F,,E,, B,,2 B,, B,,2 E, | F,2 F, F,2 F, G,2 G, E,2 E, | A,2 A, A,,3 z2 z4 | %26
 z3 z2 A,, B,,6 | E,2 F, G,F,E, B,2 B, F,2 F, | G,,2 G,, G,2 G, A,,2 A,, A,2 A, | %29
 B,,3- B,,2 A, G,F,E, B,2 B,, | C,B,,A,, B,,2 B,, !fermata!E,,3 | B,,2 B,, | %32
 C,2 B,, A,,2 D, G,,2 G, F,2 F, | G,2 F, E,2 A,, D,2 D, F,2 D, | %34
 A,2 A,, =A,,2 A,, B,,2 B,, B,2 B, | E,2 E, E,2 E, F,2 E, D,=C,B,, | F,3 z2 B,, F,,6 | %37
 z2 E, D,2 E, F,3 F,,3 | B,,2 A,, G,,F,,E,, B,,2 B,, F,2 F, | G,,2 G, A,2 A, B,2 B, B,,2 B,, |] %40

